X:1
T:Bernado's Favorite (Lancashire) -- Clog
R:clog
B:Ryan's Mammoth Collection
N: 158 940
Z: Contributed by Ray Davies,  ray:davies99.freeserve.co.uk
M:C|
L:1/8
K:D
u(f>.e)|\
v(d>.f)(A>.d) (3DFA u(d>.f) | "_SEGUE"a>fb>f a>gf>e |\
 d>fA>d (3DFA d>f | (3efe (3dcB A>gf>e |
d>fA>d (3DFA d>f | a>fb>f a>gf>e | d>^de>f (3gec (3ABc |\
 d2 f2 d2:|
|:uA2|\
vc>de>f g>ec>A | d>cd>e f>de>f | {a}g>fg>a b>ag>f |\
 (3efd (3cdB A2A>B |
c>de>f g>ec>A | d>cd>e f>de>f | g>ba>g f>d"4"e>c |\
 d2 f2 d2:|
